X: 9230
T: Dan Collins' Father's
R: jig
M: 6/8
K: Dmajor
M:12/8
d|:d2 A BAB def a2 f|aba f2 e dBB gfe|
dAA BAB def a2 f|1 aba f2 e edc dfe:|2 aba f2 e edc d2||
|:e|faa fab afe fef|aba f2 e dBB gfe|
dAA BAB def a2 f|1 aba f2 e edc d2:|2 aba f2 e edc dfe||

